X: 39228
T: Tabby, The
R: reel
M: 4/4
K: Gmajor
F|G2ge dBEF|GBAF GABc|d2Bd edBG|ADFA c2BA|
GGGB A2AB|cBce dBGF|E2 ((3efg) dBGB|AGFA G2zF|
GBdg edBA|GEDE GABc|d2Bd edBG|ADFA c2BA|
GDDB ADDB|cBce dBGF|E2 ((3efg) dBGB|AGFA G2zA|
B2dB eBde|gd ((3efg) dBGB|ceee dBGB|ADFA c2BA|
GGGB A2AB|cBce dBGF|E2 ((3efg) dBGB|AGFA G2zA|
B2dB eBde|gd ((3efg) dBGB|ceee dBGB|ADFA c2BA|
GBdg bgdB|cBce dBGF|E2 ((3efg) dBGB|AGFA G2z||

